X:6479
T:The Afterhours Jig
O:england
C:Trad?
R:Slip Jig
M:9/8
K:Am
L:1/8
EAA AGA cBA | BGG GAB GED | EAA AGA cde |1 ged edB A2 G :|2 ged edB A2 e
|
age age dBA | GGG BAG Bde | age age dBd |1 ged edB A2 e :|2 ged edB A2 G
|


